X: 2184
T: Şol Cennetin Irmakları
C: ?
O: Turkey
F: http://compmusic.upf.edu/node/140
N: segah--ilahi--yuruksemai--sol_cennetin--
N: makam= segah
N: form= ilahi
N: usul= yuruksemai = 6/8
M: 6/8
L: 1/16
K: C _1/4B _1/4e ^f 
Q: 1/4=120
%%MIDI tuningsystem comma53
G2d4d2 c3z  | d2e4d2 c4  | d2e4d2 B4  | \
w:  Şol  cen ne tin   |  ır mak la rı    |  A kar  Al lah   | 
c2d4c2 B4  | G2d4d2 c3z  | 
w:  de yu  de yu    |  Şol  cen ne tin   | 
d2e4d2 c4  | d2e4d2 B4  | c2d4c2 B4  | B2c4B2 A3z  | \
w:  ır mak la rı    |  A kar  Al lah   |  de yu  de yu    |  Çık mış  İs lam   | 
A2B4A2 G3z  | 
w:  bül bül le ri    | 
B2c4B2 A4  | GAB4AG G4  | B2c4B2 A3z  | \
w:  Ö ter  Al lah   |  de *  yu  de *  yu    |  Çık mış  İs lam   | 
A2B4AG G3z  | 
w:  bül bül le *  ri    | 
B2c4B2 A4  | Bcd4cB B3z  | G2d4d2 c3z  | \
w:  Ö ter  Al lah   |  de *  yu  de *  yu    |  Şol  cen ne tin   | 
d2e4d2 c4  | d2e4d2 B4  | 
w:  ır mak la rı    |  A kar  Al lah   | 
c2d4c2 B4  | G2d4d2 c3z  | d2e4d2 c4  | \
w:  de yu  de yu    |  Şol  cen ne tin   |  ır mak la rı    | 
d2e4d2 B4  | c2d4c2 B4  | 
w:  A kar  Al lah   |  de yu  de yu    | 
B2c4B2 A3z  | A2B4A2 G3z  | B2c4B2 A4  | \
w:  Çık mış  İs lam   |  bül bül le ri    |  Ö ter  Al lah   | 
GAB4AG G4  | B2c4B2 A3z  | 
w:  de *  yu  de *  yu    |  Çık mış  İs lam   | 
A2B4AG G3z  | B2c4B2 A4  | Bcd4cB B3z  | |


